Suru++-Ubuntu/apps/symbolic/xmoto-symbolic.svg

<svg xmlns="http://www.w3.org/2000/svg" width="16" height="16" version="1.1">
 <path style="fill:#808080" d="m 9.2145849,0.80163172 c -2.1695961,0 -4.0825019,1.09923778 -5.2120629,2.77118738 L 3.990428,3.6068351 H 3.4548841 c -0.4979036,0 -0.9014661,0.4036913 -0.9014661,0.9016063 C 1.0258744,4.8841264 0.5,5.8606429 0.5,5.8606429 H 3.7403178 C 7.6731996,6.9534933 5.9902819,9.857758 4.3063323,10.844026 2.5534218,11.870696 1.6770851,9.641985 1.6770851,9.641985 1.0259674,12.071011 2.528452,14.5 2.528452,14.5 l 11.479684,-3.346582 c 0.930573,-1.096063 1.491946,-2.5152762 1.491946,-4.0656762 0,-3.4713826 -2.814119,-6.28550538 -6.2854971,-6.28550538 z M 9.0541818,8.3962521 a 0.54733167,0.54733167 0 0 1 0.5474116,0.5474266 0.54733167,0.54733167 0 0 1 -0.5474116,0.547276 0.54733167,0.54733167 0 0 1 -0.547268,-0.547276 0.54733167,0.54733167 0 0 1 0.547268,-0.5474266 z"/>
</svg>

<svg width="16" height="16" version="1.1" xmlns="http://www.w3.org/2000/svg">
 <path d="m9.2145849 0.80163172c-2.1695961 0-4.0825019 1.0992378-5.2120629 2.7711874l-0.012094 0.034016h-0.5355439c-0.4979036 0-0.9014661 0.4036913-0.9014661 0.9016063-1.5275436 0.375685-2.053418 1.3522015-2.053418 1.3522015h3.2403178c3.9328818 1.0928504 2.2499641 3.9971151 0.5660145 4.9833831-1.7529105 1.02667-2.6292472-1.202041-2.6292472-1.202041-0.6511177 2.429026 0.8513669 4.858015 0.8513669 4.858015l11.479684-3.346582c0.930573-1.096063 1.491946-2.5152762 1.491946-4.0656762 0-3.4713826-2.814119-6.2855054-6.2854971-6.2855054zm-0.1604031 7.5946204a0.54733167 0.54733167 0 0 1 0.5474116 0.5474266 0.54733167 0.54733167 0 0 1-0.5474116 0.547276 0.54733167 0.54733167 0 0 1-0.547268-0.547276 0.54733167 0.54733167 0 0 1 0.547268-0.5474266z" style="fill:#808080"/>
</svg>
